img/adres.svg

<svg width="21" height="20" viewBox="0 0 21 20" fill="none" xmlns="http://www.w3.org/2000/svg">
<path fill-rule="evenodd" clip-rule="evenodd" d="M3.41602 8.59797C3.41602 4.76475 6.61925 1.6665 10.4939 1.6665C14.3794 1.6665 17.5827 4.76475 17.5827 8.59797C17.5827 10.5296 16.8802 12.3229 15.7239 13.8428C14.4484 15.5194 12.8761 16.9802 11.1065 18.1269C10.7014 18.3919 10.3359 18.4119 9.89139 18.1269C8.11163 16.9802 6.53942 15.5194 5.27477 13.8428C4.11767 12.3229 3.41602 10.5296 3.41602 8.59797ZM8.16121 8.8138C8.16121 10.0979 9.20906 11.1079 10.4939 11.1079C11.7796 11.1079 12.8375 10.0979 12.8375 8.8138C12.8375 7.53967 11.7796 6.48053 10.4939 6.48053C9.20906 6.48053 8.16121 7.53967 8.16121 8.8138Z" fill="#FC6733"/>
</svg>

<svg width="21" height="20" viewBox="0 0 21 20" fill="none" xmlns="http://www.w3.org/2000/svg"><path fill-rule="evenodd" clip-rule="evenodd" d="M3.416 8.598c0-3.833 3.203-6.932 7.078-6.932 3.885 0 7.089 3.099 7.089 6.932 0 1.932-.703 3.725-1.86 5.245a18.389 18.389 0 0 1-4.617 4.284c-.405.265-.77.285-1.215 0a18.035 18.035 0 0 1-4.616-4.284c-1.157-1.52-1.859-3.313-1.859-5.245zm4.745.216c0 1.284 1.048 2.294 2.333 2.294 1.286 0 2.344-1.01 2.344-2.294 0-1.274-1.058-2.333-2.344-2.333A2.345 2.345 0 0 0 8.16 8.814z" fill="#FC6733"/></svg>
